X:596
T: "Faschingslied"
N: Z1276
O: Europa, Mitteleuropa, Deutschland, Niederrhein
R: Natur und Welt, Brauchtums - Lied, Fastnahct
M: 2/4
L: 1/8
K: A
AGAG | AEEE |
AGAG | AEEE |
FGA2 | FGA2 |
=cBAG | EGA2 |
FGA2 | FGA2 |
=cBAc | BGA2

@@@ Tune index: 10354
